X:1
T:I Am Clinging to the Rock
T:I Am Clinging to the Rock
T:John Michael Bowman
T:John Michael Bowman, 1899
T:Public Domain Courtesy of the Cyber Hymnal™
T:Public Domain Courtesy of the Cyber Hymnal™
C:John Michael Bowman
Z:Public Domain
Z:Courtesy of the Cyber Hymnal™
%%score ( 1 2 ) ( 3 4 )
L:1/8
Q:1/4=95
M:4/4
K:A
V:1 treble 
V:2 treble 
V:3 bass 
V:4 bass 
V:1
 [CE]>[CE] | [EA]<[EA] [CA]>[DB] [Ec]2 [CE]>E | [DF]2 [FA]2 [FA]2 [DF]>[DF] | %3
w: 1.~I am|cling- ing to the Rock, bless- èd|sav- ing Rock, While the|
w: 2.~I am|cling- ing to the Rock, bless- èd|rock of faith, There I|
w: 3.~I am|cling- ing to the Rock, bless- èd|rock of hope, Keep- ing|
w: 4.~I am|cling- ing to the Rock, bless- èd|rock of love, Let me,|
 [CE][A,C][CE][DF] [EA]2 [Ec]2 | [EB]6 E>[DE] | [CA]>[CA] [CA][DB] [Ec]2 [CE]>E | %6
w: an- gry storms may o’er me|roll; I am|shel- tered ’neath the cleft from the|
w: see my Sav- ior’s lov- ing|form; I am|look- ing un- to Him while my|
w: near the Sav- ior’s bleed- ing|side; I am|an- chored to the Rock that was|
w: Lord up- on Thy bo- som|rest; I am|wait- ing for the time to be|
 [DF]2 [FA]2 [FA]2 [DF]>[DF] | [CE][EA][EA][FB] [Ec]2 [DB]2 | [CA]6 ||"^Refrain" [Ec]>[Ed] | %10
w: tem- pest’s shock, Bless- èd|re- fuge to my wea- ry|soul.||
w: fleet- ing breath Waits His|prais- es thro’ the pierc- ing|storm.|I am|
w: cleft for me, Near the|foun- tain of the crim- son|tide.||
w: called a- bove, With the|ran- somed there for- ev- er|blest.||
 [Ae]<[Ae] AA [Ac]<[Ac] A>G | [FB]>[FA] [DF]>[DF] [FA]2 [EG]>[DF] | %12
w: ||
w: cling- ing, ev- er cling- ing, I am|cling- ing to the Rock; Bless- èd|
w: ||
w: ||
 [CE]>[A,C] [CE][DF] [EA]2 [Ec]2 | [EB]6 [Ec]>[Ed] | [Ae]<[Ae] AA [Ac]<[Ac] A>G | %15
w: |||
w: re- fuge, thou art dear to|me; I am|cling- ing, ev- er cling- ing, I am|
w: |||
w: |||
 [FB]>[FA] [DF]>[DF] !fermata![FA]2 [DF]>[DF] | [CE]>[CE] [EA][FB] [Ec]2 [DB]2 | [CA]6 |] %18
w: |||
w: cling- ing to the Rock, Bless- èd|Sav- ior, I will cling to|Thee.|
w: |||
w: |||
V:2
 x2 | x15/2 E/ | x8 | x8 | x6 E3/2 x/ | x15/2 E/ | x8 | x8 | x6 || x2 | x8 | x8 | x8 | x8 | x8 | %15
 x8 | x8 | x6 |] %18
V:3
 [A,,A,]>[A,,A,] | [A,,C]<[A,,C] [A,,A,]>[A,,A,] [A,,A,]2 [A,,A,]>[C,A,] | %2
 [D,A,]2 [D,D]2 [D,D]2 [D,A,]>[D,A,] | [A,,A,][A,,E,][A,,A,][D,A,] [C,A,]2 [A,,A,]2 | %4
 G,6 [C,A,]>[B,,G,] | [A,,A,]>[A,,A,] [A,,E,][A,,E,] [A,,A,]2 [A,,A,]>[C,A,] | %6
 [D,A,]2 [D,D]2 [D,D]2 [D,A,]>[D,A,] | [A,,A,][A,,C][C,A,][D,A,] [E,A,]2 [E,G,]2 | [A,,A,]6 || %9
 A,>[A,B,] | [A,C]<[A,C] [E,C][C,E] [A,,E]<[A,,E] [A,,C]>[C,E] | %11
 [D,D]>[D,D] [D,A,]>[D,A,] [D,D]2 [D,A,]>[D,A,] | [A,,A,]>[A,,E,] [A,,A,][D,A,] [C,A,]2 [A,,A,]2 | %13
 [E,G,]6 A,>[A,B,] | [A,C]<[A,C] [E,C][C,C] [A,,E]<[A,,E] [A,,C]>[C,E] | %15
 [D,D]>[D,D] [D,A,]>[D,A,] !fermata![D,D]2 [D,A,]>[D,A,] | %16
 [A,,A,]>[A,,A,] [C,A,][D,A,] [E,A,]2 [E,G,]2 | [A,,A,]6 |] %18
V:4
 x2 | x8 | x8 | x8 | (E,4 D,2) x2 | x8 | x8 | x8 | x6 || A,3/2 x/ | x8 | x8 | x8 | x6 A,3/2 x/ | %14
 x8 | x8 | x8 | x6 |] %18

